public/files/perm/themes/base/nova/img/search.svg

<svg fill="none" height="20" viewBox="0 0 20 20" width="20" xmlns="http://www.w3.org/2000/svg"><path d="m13.3137 12.0598h-.6584l-.2333-.225c1-1.1667 1.5167-2.75837 1.2333-4.45003-.3916-2.31667-2.325-4.16667-4.6583-4.45-3.52499-.43334-6.49166 2.53333-6.05833 6.05833.28334 2.3333 2.13334 4.2667 4.45 4.6583 1.69167.2834 3.28333-.2333 4.45003-1.2333l.225.2333v.6584l3.5416 3.5416c.3417.3417.9.3417 1.2417 0 .3417-.3416.3417-.9 0-1.2416zm-5.00003 0c-2.075 0-3.75-1.675-3.75-3.75003 0-2.075 1.675-3.75 3.75-3.75 2.07503 0 3.75003 1.675 3.75003 3.75 0 2.07503-1.675 3.75003-3.75003 3.75003z" fill="#fff"/></svg>

<svg width="20" height="20" viewBox="0 0 20 20" fill="none" xmlns="http://www.w3.org/2000/svg">
<path d="M13.3137 12.0598H12.6553L12.422 11.8348C13.422 10.6681 13.9387 9.07643 13.6553 7.38477C13.2637 5.0681 11.3303 3.2181 8.997 2.93477C5.47201 2.50143 2.50534 5.4681 2.93867 8.9931C3.22201 11.3264 5.07201 13.2598 7.38867 13.6514C9.08034 13.9348 10.672 13.4181 11.8387 12.4181L12.0637 12.6514V13.3098L15.6053 16.8514C15.947 17.1931 16.5053 17.1931 16.847 16.8514C17.1887 16.5098 17.1887 15.9514 16.847 15.6098L13.3137 12.0598ZM8.31367 12.0598C6.23867 12.0598 4.56367 10.3848 4.56367 8.30977C4.56367 6.23477 6.23867 4.55977 8.31367 4.55977C10.3887 4.55977 12.0637 6.23477 12.0637 8.30977C12.0637 10.3848 10.3887 12.0598 8.31367 12.0598Z" fill="white"/>
</svg>
